(Exported by FreeCAD)
(Post Processor: smoothie_post)
(Output Time:2021-12-07 09:51:40.939302)
(begin preamble)
G17 G90
G21
(begin operation: Fixture)
G54
(finish operation: Fixture)
(begin operation: TC: Default Tool)
(TC: Default Tool)
M6 T1.0
M3 S0.0
(finish operation: TC: Default Tool)
(begin operation: Pocket_Shape)
(Pocket_Shape)
G0 Z5.0000
G0 X48.5000 Y28.5000
G0 Z3.0000
G1 X48.5000 Y28.5000 Z-1.5000 S0.0
G1 X48.5000 Y11.5000 Z-1.5000 S0.0
G1 X11.5000 Y11.5000 Z-1.5000 S0.0
G1 X11.5000 Y28.5000 Z-1.5000 S0.0
G1 X48.5000 Y28.5000 Z-1.5000 S0.0
G1 X48.5000 Y28.5000 Z-1.5000 S0.0
G1 X48.5000 Y11.5000 Z-1.5000 S0.0
G1 X11.5000 Y11.5000 Z-1.5000 S0.0
G1 X11.5000 Y28.5000 Z-1.5000 S0.0
G1 X48.5000 Y28.5000 Z-1.5000 S0.0
G0 Z5.0000
G0 X43.0990 Y23.6663 Z5.0000
G0 X43.0990 Y23.6663 Z3.0000
G1 X43.0990 Y23.6663 Z-1.5000 S0.0
G3 X38.7270 Y25.4907 Z-1.5000 I-4.0965 J-3.6662 S0.0
G3 X33.5068 Y19.7269 Z-1.5000 I0.2704 J-5.4908 S0.0
G3 X39.2730 Y14.5093 Z-1.5000 I5.4907 J0.2730 S0.0
G3 X43.0990 Y23.6663 Z-1.5000 I-0.2704 J5.4908 S0.0
G1 X43.0990 Y23.6663 Z-1.5000 S0.0
G3 X38.7270 Y25.4907 Z-1.5000 I-4.0965 J-3.6662 S0.0
G3 X33.5068 Y19.7269 Z-1.5000 I0.2704 J-5.4908 S0.0
G3 X39.2730 Y14.5093 Z-1.5000 I5.4907 J0.2730 S0.0
G3 X43.0990 Y23.6663 Z-1.5000 I-0.2704 J5.4908 S0.0
G0 Z5.0000
G0 X40.0442 Y28.5000 Z5.0000
G0 X40.0442 Y28.5000 Z3.0000
G1 X40.0442 Y28.5000 Z-1.5000 S0.0
G1 X36.3726 Y24.8285 Z-1.5000 S0.0
G2 X40.9333 Y25.1465 Z-1.5000 I2.6265 J-4.8057 S0.0
G1 X44.2868 Y28.5000 Z-1.5000 S0.0
G1 X48.5000 Y28.5000 Z-1.5000 S0.0
G1 X48.5000 Y28.4706 Z-1.5000 S0.0
G1 X43.3658 Y23.3363 Z-1.5000 S0.0
G2 X44.4887 Y20.2166 Z-1.5000 I-4.2945 J-3.3078 S0.0
G1 X48.5000 Y24.2279 Z-1.5000 S0.0
G1 X48.5000 Y19.9853 Z-1.5000 S0.0
G1 X40.0147 Y11.5000 Z-1.5000 S0.0
G1 X44.2574 Y11.5000 Z-1.5000 S0.0
G1 X48.5000 Y15.7426 Z-1.5000 S0.0
G1 X48.5000 Y11.5000 Z-1.5000 S0.0
G1 X48.5000 Y11.5000 Z-1.5000 S0.0
G1 X48.5000 Y15.7426 Z-1.5000 S0.0
G1 X44.2574 Y11.5000 Z-1.5000 S0.0
G1 X40.0147 Y11.5000 Z-1.5000 S0.0
G1 X48.5000 Y19.9853 Z-1.5000 S0.0
G1 X48.5000 Y24.2279 Z-1.5000 S0.0
G1 X44.4887 Y20.2166 Z-1.5000 S0.0
G3 X43.3658 Y23.3363 Z-1.5000 I-5.4175 J-0.1881 S0.0
G1 X48.5000 Y28.4706 Z-1.5000 S0.0
G1 X48.5000 Y28.5000 Z-1.5000 S0.0
G1 X44.2868 Y28.5000 Z-1.5000 S0.0
G1 X40.9333 Y25.1465 Z-1.5000 S0.0
G3 X36.3726 Y24.8285 Z-1.5000 I-1.9341 J-5.1237 S0.0
G1 X40.0442 Y28.5000 Z-1.5000 S0.0
G0 Z5.0000
G0 X38.7814 Y14.5093 Z5.0000
G0 X38.7814 Y14.5093 Z3.0000
G1 X38.7814 Y14.5093 Z-1.5000 S0.0
G1 X35.7721 Y11.5000 Z-1.5000 S0.0
G1 X31.5294 Y11.5000 Z-1.5000 S0.0
G1 X35.6647 Y15.6352 Z-1.5000 S0.0
G2 X33.8583 Y18.0715 Z-1.5000 I3.2220 J4.2768 S0.0
G1 X27.2868 Y11.5000 Z-1.5000 S0.0
G1 X23.0442 Y11.5000 Z-1.5000 S0.0
G1 X34.1837 Y22.6396 Z-1.5000 S0.0
G2 X36.3726 Y24.8285 Z-1.5000 I4.7749 J-2.5860 S0.0
G1 X40.0442 Y28.5000 Z-1.5000 S0.0
G1 X35.8015 Y28.5000 Z-1.5000 S0.0
G1 X24.8999 Y17.5984 Z-1.5000 S0.0
G3 X25.0737 Y22.0148 Z-1.5000 I-4.8517 J2.4025 S0.0
G1 X31.5589 Y28.5000 Z-1.5000 S0.0
G1 X27.3162 Y28.5000 Z-1.5000 S0.0
G1 X23.2251 Y24.4088 Z-1.5000 S0.0
G3 X20.0290 Y25.4554 Z-1.5000 I-3.1835 J-4.3182 S0.0
G1 X23.0736 Y28.5000 Z-1.5000 S0.0
G1 X23.0736 Y28.5000 Z-1.5000 S0.0
G1 X20.0290 Y25.4554 Z-1.5000 S0.0
G2 X23.2251 Y24.4088 Z-1.5000 I0.0125 J-5.3648 S0.0
G1 X27.3162 Y28.5000 Z-1.5000 S0.0
G1 X31.5589 Y28.5000 Z-1.5000 S0.0
G1 X25.0737 Y22.0148 Z-1.5000 S0.0
G2 X24.8999 Y17.5984 Z-1.5000 I-5.0255 J-2.0139 S0.0
G1 X35.8015 Y28.5000 Z-1.5000 S0.0
G1 X40.0442 Y28.5000 Z-1.5000 S0.0
G1 X36.3726 Y24.8285 Z-1.5000 S0.0
G3 X34.1837 Y22.6396 Z-1.5000 I2.5860 J-4.7749 S0.0
G1 X23.0442 Y11.5000 Z-1.5000 S0.0
G1 X27.2868 Y11.5000 Z-1.5000 S0.0
G1 X33.8583 Y18.0715 Z-1.5000 S0.0
G3 X35.6647 Y15.6352 Z-1.5000 I5.0284 J1.8406 S0.0
G1 X31.5294 Y11.5000 Z-1.5000 S0.0
G1 X35.7721 Y11.5000 Z-1.5000 S0.0
G1 X38.7814 Y14.5093 Z-1.5000 S0.0
G0 Z5.0000
G0 X25.2452 Y18.4672 Z5.0000
G0 X25.2452 Y18.4672 Z3.0000
G1 X25.2452 Y18.4672 Z-1.5000 S0.0
G3 X19.7294 Y25.4554 Z-1.5000 I-5.2426 J1.5329 S0.0
G3 X14.5420 Y19.7293 Z-1.5000 I0.2680 J-5.4556 S0.0
G3 X20.2706 Y14.5446 Z-1.5000 I5.4554 J0.2706 S0.0
G3 X25.2452 Y18.4672 Z-1.5000 I-0.2680 J5.4556 S0.0
G1 X25.2452 Y18.4672 Z-1.5000 S0.0
G3 X19.7294 Y25.4554 Z-1.5000 I-5.2426 J1.5329 S0.0
G3 X14.5420 Y19.7293 Z-1.5000 I0.2680 J-5.4556 S0.0
G3 X20.2706 Y14.5446 Z-1.5000 I5.4554 J0.2706 S0.0
G3 X25.2452 Y18.4672 Z-1.5000 I-0.2680 J5.4556 S0.0
G0 Z5.0000
G0 X22.3931 Y15.0916 Z5.0000
G0 X22.3931 Y15.0916 Z3.0000
G1 X22.3931 Y15.0916 Z-1.5000 S0.0
G1 X18.8015 Y11.5000 Z-1.5000 S0.0
G1 X14.5589 Y11.5000 Z-1.5000 S0.0
G1 X17.9859 Y14.9270 Z-1.5000 S0.0
G2 X15.5957 Y16.7794 Z-1.5000 I1.9316 J4.9606 S0.0
G1 X11.5000 Y12.6838 Z-1.5000 S0.0
G1 X11.5000 Y16.9264 Z-1.5000 S0.0
G1 X14.5360 Y19.9624 Z-1.5000 S0.0
G2 X20.0290 Y25.4554 Z-1.5000 I5.4494 J0.0437 S0.0
G1 X23.0736 Y28.5000 Z-1.5000 S0.0
G1 X18.8310 Y28.5000 Z-1.5000 S0.0
G1 X11.5000 Y21.1690 Z-1.5000 S0.0
G1 X11.5000 Y25.4117 Z-1.5000 S0.0
G1 X11.5000 Y28.5000 Z-1.5000 S0.0
G1 X14.5883 Y28.5000 Z-1.5000 S0.0
G1 X11.5000 Y25.4117 Z-1.5000 S0.0
G1 X11.5000 Y25.4117 Z-1.5000 S0.0
G1 X14.5883 Y28.5000 Z-1.5000 S0.0
G1 X11.5000 Y28.5000 Z-1.5000 S0.0
G1 X11.5000 Y25.4117 Z-1.5000 S0.0
G1 X11.5000 Y21.1690 Z-1.5000 S0.0
G1 X18.8310 Y28.5000 Z-1.5000 S0.0
G1 X23.0736 Y28.5000 Z-1.5000 S0.0
G1 X20.0290 Y25.4554 Z-1.5000 S0.0
G3 X14.5360 Y19.9624 Z-1.5000 I-0.0437 J-5.4494 S0.0
G1 X11.5000 Y16.9264 Z-1.5000 S0.0
G1 X11.5000 Y12.6838 Z-1.5000 S0.0
G1 X15.5957 Y16.7794 Z-1.5000 S0.0
G3 X17.9859 Y14.9270 Z-1.5000 I4.3218 J3.1082 S0.0
G1 X14.5589 Y11.5000 Z-1.5000 S0.0
G1 X18.8015 Y11.5000 Z-1.5000 S0.0
G1 X22.3931 Y15.0916 Z-1.5000 S0.0
G0 Z5.0000
G0 Z5.0000
(finish operation: Pocket_Shape)
(begin operation: Pocket_Shape001)
(Pocket_Shape001)
G0 Z5.0000
G0 X20.7031 Y20.7031
G0 Z3.0000
G1 X20.7031 Y20.7031 Z-2.0000 S0.0
G2 X20.9943 Y20.0000 Z-2.0000 I-0.7031 J-0.7031 S0.0
G2 X19.0057 Y20.0000 Z-2.0000 I-0.9943 J0.0000 S0.0
G2 X20.7031 Y20.7031 Z-2.0000 I0.9943 J0.0000 S0.0
G1 X20.7031 Y20.7031 Z-2.0000 S0.0
G2 X20.9943 Y20.0000 Z-2.0000 I-0.7031 J-0.7031 S0.0
G2 X19.0057 Y20.0000 Z-2.0000 I-0.9943 J0.0000 S0.0
G2 X20.7031 Y20.7031 Z-2.0000 I0.9943 J0.0000 S0.0
G1 X20.7031 Y20.7031 Z-2.0000 S0.0
G2 X19.3609 Y19.2383 Z-2.0000 I-0.7031 J-0.7031 S0.0
G2 X19.2383 Y20.6391 Z-2.0000 I0.6391 J0.7617 S0.0
G2 X20.6391 Y20.7617 Z-2.0000 I0.7617 J-0.6391 S0.0
G2 X20.7031 Y20.7031 Z-2.0000 I-0.6391 J-0.7617 S0.0
G1 X20.7031 Y20.7031 Z-2.0000 S0.0
G2 X19.3609 Y19.2383 Z-2.0000 I-0.7031 J-0.7031 S0.0
G2 X19.2383 Y20.6391 Z-2.0000 I0.6391 J0.7617 S0.0
G2 X20.6391 Y20.7617 Z-2.0000 I0.7617 J-0.6391 S0.0
G2 X20.7031 Y20.7031 Z-2.0000 I-0.6391 J-0.7617 S0.0
G1 X20.7031 Y20.7031 Z-3.0000 S0.0
G2 X19.3609 Y19.2383 Z-3.0000 I-0.7031 J-0.7031 S0.0
G2 X19.2383 Y20.6391 Z-3.0000 I0.6391 J0.7617 S0.0
G2 X20.6391 Y20.7617 Z-3.0000 I0.7617 J-0.6391 S0.0
G2 X20.7031 Y20.7031 Z-3.0000 I-0.6391 J-0.7617 S0.0
G1 X20.7031 Y20.7031 Z-3.0000 S0.0
G2 X20.9943 Y20.0000 Z-3.0000 I-0.7031 J-0.7031 S0.0
G2 X19.0057 Y20.0000 Z-3.0000 I-0.9943 J0.0000 S0.0
G2 X20.7031 Y20.7031 Z-3.0000 I0.9943 J0.0000 S0.0
G0 Z5.0000
G0 Z5.0000
(finish operation: Pocket_Shape001)
(begin operation: Pocket_Shape002)
(Pocket_Shape002)
G0 Z5.0000
G0 X39.7031 Y20.7031
G0 Z3.0000
G1 X39.7031 Y20.7031 Z-2.0000 S0.0
G2 X39.0000 Y19.0057 Z-2.0000 I-0.7031 J-0.7031 S0.0
G2 X39.0000 Y20.9943 Z-2.0000 I0.0000 J0.9943 S0.0
G2 X39.7031 Y20.7031 Z-2.0000 I0.0000 J-0.9943 S0.0
G1 X39.7031 Y20.7031 Z-2.0000 S0.0
G2 X39.7617 Y19.3609 Z-2.0000 I-0.7031 J-0.7031 S0.0
G2 X38.2383 Y20.6391 Z-2.0000 I-0.7617 J0.6391 S0.0
G2 X39.7031 Y20.7031 Z-2.0000 I0.7617 J-0.6391 S0.0
G1 X39.7031 Y20.7031 Z-3.0000 S0.0
G2 X39.7617 Y19.3609 Z-3.0000 I-0.7031 J-0.7031 S0.0
G2 X38.2383 Y20.6391 Z-3.0000 I-0.7617 J0.6391 S0.0
G2 X39.7031 Y20.7031 Z-3.0000 I0.7617 J-0.6391 S0.0
G1 X39.7031 Y20.7031 Z-3.0000 S0.0
G2 X39.0000 Y19.0057 Z-3.0000 I-0.7031 J-0.7031 S0.0
G2 X39.0000 Y20.9943 Z-3.0000 I0.0000 J0.9943 S0.0
G2 X39.7031 Y20.7031 Z-3.0000 I0.0000 J-0.9943 S0.0
G0 Z5.0000
G0 Z5.0000
(finish operation: Pocket_Shape002)
(begin postamble)
M05
G17 G90
M2
