(Exported by FreeCAD)
(Post Processor: smoothie_post)
(Output Time:2021-12-04 18:55:43.868408)
(begin preamble)
G17 G90
G21
(begin operation: Fixture)
G54
(finish operation: Fixture)
(begin operation: TC: Default Tool)
(TC: Default Tool)
M6 T1.0
M3 S0.0
(finish operation: TC: Default Tool)
(begin operation: Pocket_Shape)
(Pocket_Shape)
G0 Z5.0000
G0 X34.9349 Y46.5883
G0 Z3.0000
G1 X34.9349 Y46.5883 Z-2.0000 S0.0
G2 X35.5928 Y45.0000 Z-2.0000 I-1.5882 J-1.5883 S0.0
G2 X31.1005 Y45.0000 Z-2.0000 I-2.2462 J0.0000 S0.0
G2 X34.9349 Y46.5883 Z-2.0000 I2.2462 J0.0000 S0.0
G0 Z5.0000
G0 X35.0442 Y46.4709 Z5.0000
G0 X35.0442 Y46.4709 Z3.0000
G1 X35.0442 Y46.4709 Z-2.0000 S0.0
G3 X31.3162 Y45.9563 Z-2.0000 I-1.6968 J-1.4689 S0.0
G1 X34.3030 Y42.9695 Z-2.0000 S0.0
G2 X31.3162 Y45.9563 Z-2.0000 I-0.9582 J2.0286 S0.0
G1 X31.3162 Y45.9563 Z-3.0000 S0.0
G3 X34.3030 Y42.9695 Z-3.0000 I2.0286 J-0.9582 S0.0
G1 X31.3162 Y45.9563 Z-3.0000 S0.0
G2 X35.0442 Y46.4709 Z-3.0000 I2.0313 J-0.9543 S0.0
G0 Z5.0000
G0 X35.0442 Z5.0000
G0 X35.0442 Z3.0000
G1 X35.0442 Y46.4709 Z-3.0000 S0.0
G2 X35.5928 Y45.0000 Z-3.0000 I-1.6975 J-1.4709 S0.0
G2 X31.1005 Y45.0000 Z-3.0000 I-2.2462 J0.0000 S0.0
G2 X35.0442 Y46.4709 Z-3.0000 I2.2462 J0.0000 S0.0
G0 Z5.0000
G0 Z5.0000
G0 X35.0442 Y46.4709
G0 X51.3560 Y45.0842
G0 X51.3560 Y45.0842 Z3.0000
G1 X51.3560 Y45.0842 Z-2.0000 S0.0
G2 X52.3467 Y45.9943 Z-2.0000 I0.9907 J-0.0842 S0.0
G2 X52.3467 Y44.0057 Z-2.0000 I0.0000 J-0.9943 S0.0
G2 X51.3560 Y45.0842 Z-2.0000 I0.0000 J0.9943 S0.0
G1 X51.3560 Y45.0842 Z-2.0000 S0.0
G2 X51.5850 Y45.6391 Z-2.0000 I0.9907 J-0.0842 S0.0
G2 X52.9858 Y45.7617 Z-2.0000 I0.7617 J-0.6391 S0.0
G2 X53.1083 Y44.3609 Z-2.0000 I-0.6391 J-0.7617 S0.0
G2 X51.3560 Y45.0842 Z-2.0000 I-0.7617 J0.6391 S0.0
G1 X51.3560 Y45.0842 Z-3.0000 S0.0
G2 X52.3467 Y45.9943 Z-3.0000 I0.9907 J-0.0842 S0.0
G2 X52.3467 Y44.0057 Z-3.0000 I0.0000 J-0.9943 S0.0
G2 X51.3560 Y45.0842 Z-3.0000 I0.0000 J0.9943 S0.0
G1 X51.3560 Y45.0842 Z-3.0000 S0.0
G2 X51.5850 Y45.6391 Z-3.0000 I0.9907 J-0.0842 S0.0
G2 X52.9858 Y45.7617 Z-3.0000 I0.7617 J-0.6391 S0.0
G2 X53.1083 Y44.3609 Z-3.0000 I-0.6391 J-0.7617 S0.0
G2 X51.3560 Y45.0842 Z-3.0000 I-0.7617 J0.6391 S0.0
G0 Z5.0000
G0 Z5.0000
G0 X51.3560 Y45.0842
G0 X70.3524 Y45.0000
G0 X70.3524 Y45.0000 Z3.0000
G1 X70.3524 Y45.0000 Z-2.0000 S0.0
G2 X72.3409 Y45.0000 Z-2.0000 I0.9943 J0.0000 S0.0
G2 X70.3524 Y45.0000 Z-2.0000 I-0.9943 J0.0000 S0.0
G1 X70.3524 Y45.0000 Z-2.0000 S0.0
G2 X71.9858 Y45.7617 Z-2.0000 I0.9943 J-0.0000 S0.0
G2 X70.7076 Y44.2383 Z-2.0000 I-0.6391 J-0.7617 S0.0
G2 X70.3524 Y45.0000 Z-2.0000 I0.6391 J0.7617 S0.0
G1 X70.3524 Y45.0000 Z-3.0000 S0.0
G2 X72.3409 Y45.0000 Z-3.0000 I0.9943 J0.0000 S0.0
G2 X70.3524 Y45.0000 Z-3.0000 I-0.9943 J0.0000 S0.0
G1 X70.3524 Y45.0000 Z-3.0000 S0.0
G2 X71.9858 Y45.7617 Z-3.0000 I0.9943 J-0.0000 S0.0
G2 X70.7076 Y44.2383 Z-3.0000 I-0.6391 J-0.7617 S0.0
G2 X70.3524 Y45.0000 Z-3.0000 I0.6391 J0.7617 S0.0
G0 Z5.0000
G0 Z5.0000
G0 X70.3524 Y45.0000
G0 X52.9643 Y84.0915
G0 X52.9643 Y84.0915 Z3.0000
G1 X52.9643 Y84.0915 Z-2.0000 S0.0
G2 X52.5602 Y84.0057 Z-2.0000 I-0.4041 J0.9085 S0.0
G2 X52.5602 Y85.9943 Z-2.0000 I0.0000 J0.9943 S0.0
G2 X52.9643 Y84.0915 Z-2.0000 I0.0000 J-0.9943 S0.0
G1 X52.9643 Y84.0915 Z-2.0000 S0.0
G2 X51.7985 Y85.6391 Z-2.0000 I-0.4041 J0.9085 S0.0
G2 X53.1993 Y85.7617 Z-2.0000 I0.7617 J-0.6391 S0.0
G2 X53.3219 Y84.3609 Z-2.0000 I-0.6391 J-0.7617 S0.0
G2 X52.9643 Y84.0915 Z-2.0000 I-0.7617 J0.6391 S0.0
G1 X52.9643 Y84.0915 Z-3.0000 S0.0
G2 X52.5602 Y84.0057 Z-3.0000 I-0.4041 J0.9085 S0.0
G2 X52.5602 Y85.9943 Z-3.0000 I0.0000 J0.9943 S0.0
G2 X52.9643 Y84.0915 Z-3.0000 I0.0000 J-0.9943 S0.0
G1 X52.9643 Y84.0915 Z-3.0000 S0.0
G2 X51.7985 Y85.6391 Z-3.0000 I-0.4041 J0.9085 S0.0
G2 X53.1993 Y85.7617 Z-3.0000 I0.7617 J-0.6391 S0.0
G2 X53.3219 Y84.3609 Z-3.0000 I-0.6391 J-0.7617 S0.0
G2 X52.9643 Y84.0915 Z-3.0000 I-0.7617 J0.6391 S0.0
G0 Z5.0000
G0 Z5.0000
G0 X52.9643 Y84.0915
G0 X34.5534 Y84.9535
G0 X34.5534 Y84.9535 Z3.0000
G1 X34.5534 Y84.9535 Z-2.0000 S0.0
G2 X32.5659 Y85.0000 Z-2.0000 I-0.9932 J0.0465 S0.0
G2 X34.5545 Y85.0000 Z-2.0000 I0.9943 J0.0000 S0.0
G2 X34.5534 Y84.9535 Z-2.0000 I-0.9943 J0.0000 S0.0
G1 X34.5534 Y84.9535 Z-2.0000 S0.0
G2 X32.9211 Y84.2383 Z-2.0000 I-0.9932 J0.0465 S0.0
G2 X32.7985 Y85.6391 Z-2.0000 I0.6391 J0.7617 S0.0
G2 X34.1993 Y85.7617 Z-2.0000 I0.7617 J-0.6391 S0.0
G2 X34.5534 Y84.9535 Z-2.0000 I-0.6391 J-0.7617 S0.0
G1 X34.5534 Y84.9535 Z-3.0000 S0.0
G2 X32.9211 Y84.2383 Z-3.0000 I-0.9932 J0.0465 S0.0
G2 X32.7985 Y85.6391 Z-3.0000 I0.6391 J0.7617 S0.0
G2 X34.1993 Y85.7617 Z-3.0000 I0.7617 J-0.6391 S0.0
G2 X34.5534 Y84.9535 Z-3.0000 I-0.6391 J-0.7617 S0.0
G1 X34.5534 Y84.9535 Z-3.0000 S0.0
G2 X32.5659 Y85.0000 Z-3.0000 I-0.9932 J0.0465 S0.0
G2 X34.5545 Y85.0000 Z-3.0000 I0.9943 J0.0000 S0.0
G2 X34.5534 Y84.9535 Z-3.0000 I-0.9943 J0.0000 S0.0
G0 Z5.0000
G0 Z5.0000
G0 X34.5534 Y84.9535
G0 X119.9353 Y45.9336
G0 X119.9353 Y45.9336 Z3.0000
G1 X119.9353 Y45.9336 Z-2.0000 S0.0
G2 X124.2244 Y45.0000 Z-2.0000 I2.0429 J-0.9336 S0.0
G2 X119.7321 Y45.0000 Z-2.0000 I-2.2462 J0.0000 S0.0
G2 X119.9353 Y45.9336 Z-2.0000 I2.2462 J0.0000 S0.0
G0 Z5.0000
G0 X119.9478 Y45.9563 Z5.0000
G0 X119.9478 Y45.9563 Z3.0000
G1 X119.9478 Y45.9563 Z-2.0000 S0.0
G3 X122.9346 Y42.9695 Z-2.0000 I2.0286 J-0.9582 S0.0
G1 X119.9478 Y45.9563 Z-2.0000 S0.0
G2 X123.6758 Y46.4709 Z-2.0000 I2.0313 J-0.9543 S0.0
G1 X123.6758 Y46.4709 Z-3.0000 S0.0
G3 X119.9478 Y45.9563 Z-3.0000 I-1.6968 J-1.4689 S0.0
G1 X122.9346 Y42.9695 Z-3.0000 S0.0
G2 X119.9478 Y45.9563 Z-3.0000 I-0.9582 J2.0286 S0.0
G0 Z5.0000
G0 X119.9462 Y45.9571 Z5.0000
G0 X119.9462 Y45.9571 Z3.0000
G1 X119.9462 Y45.9571 Z-3.0000 S0.0
G2 X124.2244 Y45.0000 Z-3.0000 I2.0321 J-0.9571 S0.0
G2 X119.7321 Y45.0000 Z-3.0000 I-2.2462 J0.0000 S0.0
G2 X119.9462 Y45.9571 Z-3.0000 I2.2462 J0.0000 S0.0
G0 Z5.0000
G0 Z5.0000
G0 X119.9462 Y45.9571
G0 X139.9850 Y45.0452
G0 X139.9850 Y45.0452 Z3.0000
G1 X139.9850 Y45.0452 Z-2.0000 S0.0
G2 X140.9783 Y45.9943 Z-2.0000 I0.9932 J-0.0452 S0.0
G2 X140.9783 Y44.0057 Z-2.0000 I0.0000 J-0.9943 S0.0
G2 X139.9850 Y45.0452 Z-2.0000 I0.0000 J0.9943 S0.0
G1 X139.9850 Y45.0452 Z-2.0000 S0.0
G2 X140.2166 Y45.6391 Z-2.0000 I0.9932 J-0.0452 S0.0
G2 X141.6174 Y45.7617 Z-2.0000 I0.7617 J-0.6391 S0.0
G2 X141.7399 Y44.3609 Z-2.0000 I-0.6391 J-0.7617 S0.0
G2 X139.9850 Y45.0452 Z-2.0000 I-0.7617 J0.6391 S0.0
G1 X139.9850 Y45.0452 Z-3.0000 S0.0
G2 X140.2166 Y45.6391 Z-3.0000 I0.9932 J-0.0452 S0.0
G2 X141.6174 Y45.7617 Z-3.0000 I0.7617 J-0.6391 S0.0
G2 X141.7399 Y44.3609 Z-3.0000 I-0.6391 J-0.7617 S0.0
G2 X139.9850 Y45.0452 Z-3.0000 I-0.7617 J0.6391 S0.0
G1 X139.9850 Y45.0452 Z-3.0000 S0.0
G2 X140.9783 Y45.9943 Z-3.0000 I0.9932 J-0.0452 S0.0
G2 X140.9783 Y44.0057 Z-3.0000 I0.0000 J-0.9943 S0.0
G2 X139.9850 Y45.0452 Z-3.0000 I0.0000 J0.9943 S0.0
G0 Z5.0000
G0 Z5.0000
G0 X139.9850 Y45.0452
G0 X158.9840 Y45.0000
G0 X158.9840 Y45.0000 Z3.0000
G1 X158.9840 Y45.0000 Z-2.0000 S0.0
G2 X160.9725 Y45.0000 Z-2.0000 I0.9943 J0.0000 S0.0
G2 X158.9840 Y45.0000 Z-2.0000 I-0.9943 J0.0000 S0.0
G1 X158.9840 Y45.0000 Z-2.0000 S0.0
G2 X160.6174 Y45.7617 Z-2.0000 I0.9943 J-0.0000 S0.0
G2 X159.3392 Y44.2383 Z-2.0000 I-0.6391 J-0.7617 S0.0
G2 X158.9840 Y45.0000 Z-2.0000 I0.6391 J0.7617 S0.0
G1 X158.9840 Y45.0000 Z-3.0000 S0.0
G2 X160.9725 Y45.0000 Z-3.0000 I0.9943 J0.0000 S0.0
G2 X158.9840 Y45.0000 Z-3.0000 I-0.9943 J0.0000 S0.0
G1 X158.9840 Y45.0000 Z-3.0000 S0.0
G2 X160.6174 Y45.7617 Z-3.0000 I0.9943 J-0.0000 S0.0
G2 X159.3392 Y44.2383 Z-3.0000 I-0.6391 J-0.7617 S0.0
G2 X158.9840 Y45.0000 Z-3.0000 I0.6391 J0.7617 S0.0
G0 Z5.0000
G0 Z5.0000
G0 X158.9840 Y45.0000
G0 X191.4757
G0 X191.4757 Z3.0000
G1 X191.4757 Y45.0000 Z-2.0000 S0.0
G2 X198.4698 Y45.0000 Z-2.0000 I3.4970 J-0.0000 S0.0
G2 X191.4757 Y45.0000 Z-2.0000 I-3.4970 J0.0000 S0.0
G0 Z5.0000
G0 X194.9207 Y41.5099 Z5.0000
G0 X194.9207 Y41.5099 Z3.0000
G1 X194.9207 Y41.5099 Z-2.0000 S0.0
G1 X191.4788 Y44.9518 Z-2.0000 S0.0
G3 X194.9207 Y41.5099 Z-2.0000 I3.4798 J0.0378 S0.0
G3 X197.7688 Y42.9044 Z-2.0000 I0.0746 J3.4531 S0.0
G1 X192.8798 Y47.7934 Z-2.0000 S0.0
G2 X197.5220 Y47.3939 Z-2.0000 I2.0990 J-2.7807 S0.0
G1 X197.5220 Y47.3939 Z-3.0000 S0.0
G3 X192.8798 Y47.7934 Z-3.0000 I-2.5432 J-2.3811 S0.0
G1 X197.7688 Y42.9044 Z-3.0000 S0.0
G2 X194.9207 Y41.5099 Z-3.0000 I-2.7734 J2.0585 S0.0
G2 X191.4788 Y44.9518 Z-3.0000 I0.0378 J3.4798 S0.0
G1 X194.9207 Y41.5099 Z-3.0000 S0.0
G0 Z5.0000
G0 X194.9206 Y41.5034 Z5.0000
G0 X194.9206 Y41.5034 Z3.0000
G1 X194.9206 Y41.5034 Z-3.0000 S0.0
G2 X191.4757 Y45.0000 Z-3.0000 I0.0521 J3.4966 S0.0
G2 X198.4698 Y45.0000 Z-3.0000 I3.4970 J-0.0000 S0.0
G2 X194.9206 Y41.5034 Z-3.0000 I-3.4970 J0.0000 S0.0
G0 Z5.0000
G0 Z5.0000
G0 X194.9206 Y41.5034
G0 X180.0313 Y74.5000
G0 X180.0313 Y74.5000 Z3.0000
G1 X180.0313 Y74.5000 Z-2.0000 S0.0
G1 X111.0313 Y74.5000 Z-2.0000 S0.0
G1 X111.0313 Y96.5000 Z-2.0000 S0.0
G1 X180.0313 Y96.5000 Z-2.0000 S0.0
G1 X180.0313 Y74.5000 Z-2.0000 S0.0
G0 Z5.0000
G0 X180.0313 Z5.0000
G0 X180.0313 Z3.0000
G1 X180.0313 Y74.5000 Z-2.0000 S0.0
G1 X180.0313 Y78.7426 Z-2.0000 S0.0
G1 X175.7886 Y74.5000 Z-2.0000 S0.0
G1 X171.5460 Y74.5000 Z-2.0000 S0.0
G1 X180.0313 Y82.9853 Z-2.0000 S0.0
G1 X180.0313 Y87.2279 Z-2.0000 S0.0
G1 X167.3033 Y74.5000 Z-2.0000 S0.0
G1 X163.0607 Y74.5000 Z-2.0000 S0.0
G1 X180.0313 Y91.4706 Z-2.0000 S0.0
G1 X180.0313 Y95.7132 Z-2.0000 S0.0
G1 X158.8181 Y74.5000 Z-2.0000 S0.0
G1 X154.5754 Y74.5000 Z-2.0000 S0.0
G1 X176.5754 Y96.5000 Z-2.0000 S0.0
G1 X172.3328 Y96.5000 Z-2.0000 S0.0
G1 X150.3328 Y74.5000 Z-2.0000 S0.0
G1 X146.0901 Y74.5000 Z-2.0000 S0.0
G1 X168.0901 Y96.5000 Z-2.0000 S0.0
G1 X163.8475 Y96.5000 Z-2.0000 S0.0
G1 X141.8475 Y74.5000 Z-2.0000 S0.0
G1 X137.6049 Y74.5000 Z-2.0000 S0.0
G1 X159.6049 Y96.5000 Z-2.0000 S0.0
G1 X155.3622 Y96.5000 Z-2.0000 S0.0
G1 X133.3622 Y74.5000 Z-2.0000 S0.0
G1 X129.1196 Y74.5000 Z-2.0000 S0.0
G1 X151.1196 Y96.5000 Z-2.0000 S0.0
G1 X146.8769 Y96.5000 Z-2.0000 S0.0
G1 X124.8769 Y74.5000 Z-2.0000 S0.0
G1 X120.6343 Y74.5000 Z-2.0000 S0.0
G1 X142.6343 Y96.5000 Z-2.0000 S0.0
G1 X138.3917 Y96.5000 Z-2.0000 S0.0
G1 X116.3917 Y74.5000 Z-2.0000 S0.0
G1 X112.1490 Y74.5000 Z-2.0000 S0.0
G1 X134.1490 Y96.5000 Z-2.0000 S0.0
G1 X129.9064 Y96.5000 Z-2.0000 S0.0
G1 X111.0313 Y77.6249 Z-2.0000 S0.0
G1 X111.0313 Y81.8675 Z-2.0000 S0.0
G1 X125.6637 Y96.5000 Z-2.0000 S0.0
G1 X121.4211 Y96.5000 Z-2.0000 S0.0
G1 X111.0313 Y86.1102 Z-2.0000 S0.0
G1 X111.0313 Y90.3528 Z-2.0000 S0.0
G1 X117.1785 Y96.5000 Z-2.0000 S0.0
G1 X112.9358 Y96.5000 Z-2.0000 S0.0
G1 X111.0313 Y94.5955 Z-2.0000 S0.0
G1 X111.0313 Y96.5000 Z-2.0000 S0.0
G1 X112.9358 Y96.5000 Z-2.0000 S0.0
G1 X112.9358 Y96.5000 Z-3.0000 S0.0
G1 X180.0313 Y96.5000 Z-3.0000 S0.0
G1 X180.0313 Y74.5000 Z-3.0000 S0.0
G1 X111.0313 Y74.5000 Z-3.0000 S0.0
G1 X111.0313 Y96.5000 Z-3.0000 S0.0
G1 X112.9358 Y96.5000 Z-3.0000 S0.0
G1 X112.9358 Y96.5000 Z-3.0000 S0.0
G1 X111.0313 Y96.5000 Z-3.0000 S0.0
G1 X111.0313 Y94.5955 Z-3.0000 S0.0
G1 X112.9358 Y96.5000 Z-3.0000 S0.0
G1 X117.1785 Y96.5000 Z-3.0000 S0.0
G1 X111.0313 Y90.3528 Z-3.0000 S0.0
G1 X111.0313 Y86.1102 Z-3.0000 S0.0
G1 X121.4211 Y96.5000 Z-3.0000 S0.0
G1 X125.6637 Y96.5000 Z-3.0000 S0.0
G1 X111.0313 Y81.8675 Z-3.0000 S0.0
G1 X111.0313 Y77.6249 Z-3.0000 S0.0
G1 X129.9064 Y96.5000 Z-3.0000 S0.0
G1 X134.1490 Y96.5000 Z-3.0000 S0.0
G1 X112.1490 Y74.5000 Z-3.0000 S0.0
G1 X116.3917 Y74.5000 Z-3.0000 S0.0
G1 X138.3917 Y96.5000 Z-3.0000 S0.0
G1 X142.6343 Y96.5000 Z-3.0000 S0.0
G1 X120.6343 Y74.5000 Z-3.0000 S0.0
G1 X124.8769 Y74.5000 Z-3.0000 S0.0
G1 X146.8769 Y96.5000 Z-3.0000 S0.0
G1 X151.1196 Y96.5000 Z-3.0000 S0.0
G1 X129.1196 Y74.5000 Z-3.0000 S0.0
G1 X133.3622 Y74.5000 Z-3.0000 S0.0
G1 X155.3622 Y96.5000 Z-3.0000 S0.0
G1 X159.6049 Y96.5000 Z-3.0000 S0.0
G1 X137.6049 Y74.5000 Z-3.0000 S0.0
G1 X141.8475 Y74.5000 Z-3.0000 S0.0
G1 X163.8475 Y96.5000 Z-3.0000 S0.0
G1 X168.0901 Y96.5000 Z-3.0000 S0.0
G1 X146.0901 Y74.5000 Z-3.0000 S0.0
G1 X150.3328 Y74.5000 Z-3.0000 S0.0
G1 X172.3328 Y96.5000 Z-3.0000 S0.0
G1 X176.5754 Y96.5000 Z-3.0000 S0.0
G1 X154.5754 Y74.5000 Z-3.0000 S0.0
G1 X158.8181 Y74.5000 Z-3.0000 S0.0
G1 X180.0313 Y95.7132 Z-3.0000 S0.0
G1 X180.0313 Y91.4706 Z-3.0000 S0.0
G1 X163.0607 Y74.5000 Z-3.0000 S0.0
G1 X167.3033 Y74.5000 Z-3.0000 S0.0
G1 X180.0313 Y87.2279 Z-3.0000 S0.0
G1 X180.0313 Y82.9853 Z-3.0000 S0.0
G1 X171.5460 Y74.5000 Z-3.0000 S0.0
G1 X175.7886 Y74.5000 Z-3.0000 S0.0
G1 X180.0313 Y78.7426 Z-3.0000 S0.0
G1 X180.0313 Y74.5000 Z-3.0000 S0.0
G0 Z5.0000
G0 Z5.0000
G0 X180.0313 Y74.5000
G0 X209.9978
G0 X209.9978 Z3.0000
G1 X209.9978 Y74.5000 Z-2.0000 S0.0
G1 X209.9978 Y100.5000 Z-2.0000 S0.0
G1 X228.9978 Y100.5000 Z-2.0000 S0.0
G1 X228.9978 Y74.5000 Z-2.0000 S0.0
G1 X209.9978 Y74.5000 Z-2.0000 S0.0
G0 Z5.0000
G0 X228.9978 Z5.0000
G0 X228.9978 Z3.0000
G1 X228.9978 Y74.5000 Z-2.0000 S0.0
G1 X228.9978 Y78.7426 Z-2.0000 S0.0
G1 X224.7551 Y74.5000 Z-2.0000 S0.0
G1 X220.5125 Y74.5000 Z-2.0000 S0.0
G1 X228.9978 Y82.9853 Z-2.0000 S0.0
G1 X228.9978 Y87.2279 Z-2.0000 S0.0
G1 X216.2699 Y74.5000 Z-2.0000 S0.0
G1 X212.0272 Y74.5000 Z-2.0000 S0.0
G1 X228.9978 Y91.4706 Z-2.0000 S0.0
G1 X228.9978 Y95.7132 Z-2.0000 S0.0
G1 X209.9978 Y76.7132 Z-2.0000 S0.0
G1 X209.9978 Y80.9558 Z-2.0000 S0.0
G1 X228.9978 Y99.9558 Z-2.0000 S0.0
G1 X228.9978 Y100.5000 Z-2.0000 S0.0
G1 X225.2993 Y100.5000 Z-2.0000 S0.0
G1 X209.9978 Y85.1985 Z-2.0000 S0.0
G1 X209.9978 Y89.4411 Z-2.0000 S0.0
G1 X221.0567 Y100.5000 Z-2.0000 S0.0
G1 X216.8140 Y100.5000 Z-2.0000 S0.0
G1 X209.9978 Y93.6838 Z-2.0000 S0.0
G1 X209.9978 Y97.9264 Z-2.0000 S0.0
G1 X209.9978 Y100.5000 Z-2.0000 S0.0
G1 X212.5714 Y100.5000 Z-2.0000 S0.0
G1 X209.9978 Y97.9264 Z-2.0000 S0.0
G1 X209.9978 Y97.9264 Z-3.0000 S0.0
G1 X212.5714 Y100.5000 Z-3.0000 S0.0
G1 X209.9978 Y100.5000 Z-3.0000 S0.0
G1 X209.9978 Y97.9264 Z-3.0000 S0.0
G1 X209.9978 Y93.6838 Z-3.0000 S0.0
G1 X216.8140 Y100.5000 Z-3.0000 S0.0
G1 X221.0567 Y100.5000 Z-3.0000 S0.0
G1 X209.9978 Y89.4411 Z-3.0000 S0.0
G1 X209.9978 Y85.1985 Z-3.0000 S0.0
G1 X225.2993 Y100.5000 Z-3.0000 S0.0
G1 X228.9978 Y100.5000 Z-3.0000 S0.0
G1 X228.9978 Y99.9558 Z-3.0000 S0.0
G1 X209.9978 Y80.9558 Z-3.0000 S0.0
G1 X209.9978 Y76.7132 Z-3.0000 S0.0
G1 X228.9978 Y95.7132 Z-3.0000 S0.0
G1 X228.9978 Y91.4706 Z-3.0000 S0.0
G1 X212.0272 Y74.5000 Z-3.0000 S0.0
G1 X216.2699 Y74.5000 Z-3.0000 S0.0
G1 X228.9978 Y87.2279 Z-3.0000 S0.0
G1 X228.9978 Y82.9853 Z-3.0000 S0.0
G1 X220.5125 Y74.5000 Z-3.0000 S0.0
G1 X224.7551 Y74.5000 Z-3.0000 S0.0
G1 X228.9978 Y78.7426 Z-3.0000 S0.0
G1 X228.9978 Y74.5000 Z-3.0000 S0.0
G1 X228.9978 Y74.5000 Z-3.0000 S0.0
G1 X209.9978 Y74.5000 Z-3.0000 S0.0
G1 X209.9978 Y100.5000 Z-3.0000 S0.0
G1 X228.9978 Y100.5000 Z-3.0000 S0.0
G1 X228.9978 Y74.5000 Z-3.0000 S0.0
G0 Z5.0000
G0 Z5.0000
(finish operation: Pocket_Shape)
(begin postamble)
M05
G17 G90
M2
